X: 2668
T: Bank Of Turf, The
R: hornpipe
M: 4/4
K: Gmajor
|:GA|G2 GA BB Bc|dB cA GB AG|FE FG AB ce|dB cA FB BA|
G2 GA GA Bc|dB cA GBAG|FA (3gfe dcAF|(3ABA GF G2:|
|:Bc|dg gf g3a|bg gf g2 ag|f2 d2 de dc|(3BcB BG (3AcA AF|
Gg gf g2 ga|bg gf gbag|f2 dc dc AF|(3ABA GF G2:|
(3DEF|G2 GA B3c|d2 GF G2 (3ABc|d2 G2 (3cdc Bc|AD (3FED dc AF|
GFGA B3c|(3dcB cA GBAG|F2 (3fed cA FD|(3ABA GF G2:|

